resources/haticons/SVG/power_input.svg

<!-- Generated by IcoMoon.io -->
<svg version="1.1" xmlns="http://www.w3.org/2000/svg" width="24" height="24" viewBox="0 0 24 24">
<title>power_input</title>
<path d="M15.984 15v-2.016h5.016v2.016h-5.016zM9 15v-2.016h5.016v2.016h-5.016zM2.016 15v-2.016h4.969v2.016h-4.969zM2.016 9h18.984v2.016h-18.984v-2.016z"></path>
</svg>

<svg xmlns="http://www.w3.org/2000/svg" width="24" height="24"><path d="M15.984 15v-2.016H21V15h-5.016zM9 15v-2.016h5.016V15H9zm-6.984 0v-2.016h4.969V15H2.016zm0-6H21v2.016H2.016V9z"/></svg>
